source/images/crud-write-concern-unack.svg

<?xml version="1.0" encoding="UTF-8" standalone="no"?>
<svg
   xmlns:dc="http://purl.org/dc/elements/1.1/"
   xmlns:cc="http://creativecommons.org/ns#"
   xmlns:rdf="http://www.w3.org/1999/02/22-rdf-syntax-ns#"
   xmlns:svg="http://www.w3.org/2000/svg"
   xmlns="http://www.w3.org/2000/svg"
   xmlns:sodipodi="http://sodipodi.sourceforge.net/DTD/sodipodi-0.dtd"
   xmlns:inkscape="http://www.inkscape.org/namespaces/inkscape"
   version="1.1"
   x="0px"
   y="0px"
   width="460"
   height="320"
   viewBox="0, 0, 460, 320"
   id="svg3077"
   inkscape:version="0.48.4 r9939"
   sodipodi:docname="crud-write-concern-unack.svg">
  <metadata
     id="metadata3132">
    <rdf:RDF>
      <cc:Work
         rdf:about="">
        <dc:format>image/svg+xml</dc:format>
        <dc:type
           rdf:resource="http://purl.org/dc/dcmitype/StillImage" />
      </cc:Work>
    </rdf:RDF>
  </metadata>
  <sodipodi:namedview
     pagecolor="#ffffff"
     bordercolor="#666666"
     borderopacity="1"
     objecttolerance="10"
     gridtolerance="10"
     guidetolerance="10"
     inkscape:pageopacity="0"
     inkscape:pageshadow="2"
     inkscape:window-width="958"
     inkscape:window-height="1180"
     id="namedview3130"
     showgrid="true"
     showguides="false"
     inkscape:zoom="2.8284271"
     inkscape:cx="230"
     inkscape:cy="160"
     inkscape:window-x="2161"
     inkscape:window-y="19"
     inkscape:window-maximized="0"
     inkscape:current-layer="svg3077">
    <inkscape:grid
       type="xygrid"
       id="grid3175" />
  </sodipodi:namedview>
  <path
     style="fill:#5a5955"
     inkscape:connector-curvature="0"
     id="path3080"
     d="m 22.061,61.915 c 0,1.103 1.31,1.996 2.927,1.996 l 169.147,0 c 1.617,0 2.926,-0.893 2.926,-1.996 l 0,-41.007 c 0,-1.103 -1.309,-1.997 -2.926,-1.997 l -169.147,0 c -1.617,0 -2.927,0.894 -2.927,1.997 l 0,41.007" />
  <text
     id="text3082"
     x="109.561"
     y="41.410999">
    <tspan
       style="font-size:24px;fill:#fffffe;font-family:GillSans"
       id="tspan3084"
       font-size="24"
       y="48.091"
       x="74.270996">Dri</tspan>
    <tspan
       style="font-size:24px;fill:#fffffe;font-family:GillSans"
       id="tspan3086"
       font-size="24"
       y="48.091"
       x="107.036">v</tspan>
    <tspan
       style="font-size:24px;fill:#fffffe;font-family:GillSans"
       id="tspan3088"
       font-size="24"
       y="48.091"
       x="117.068">e</tspan>
    <tspan
       style="font-size:24px;fill:#fffffe;font-family:GillSans"
       id="tspan3090"
       font-size="24"
       y="48.091"
       x="128.564">r</tspan>
  </text>
  <text
     id="text3092"
     x="112.86"
     y="238.41">
    <tspan
       style="font-size:24px;fill:#fffffe;font-family:GillSans"
       id="tspan3094"
       font-size="24"
       y="245.91"
       x="73.170998">Primary</tspan>
  </text>
  <text
     id="text3096"
     transform="matrix(0,1,-1,0,0,0)"
     x="151.619"
     y="-310.16602">
    <tspan
       style="font-size:24px;fill:#3299cc;font-family:GillSans"
       id="tspan3098"
       font-size="24"
       y="-305"
       x="120">Write</tspan>
  </text>
  <path
     d="m 299.7071,49.732166 1.176,183.517004"
     id="path3102"
     inkscape:connector-curvature="0"
     style="fill-opacity:0;stroke:#3299cc;stroke-width:4" />
  <path
     d="m 295.87535,232.24221 4.881,12.769 4.718,-12.831 z"
     id="path3104"
     inkscape:connector-curvature="0"
     style="fill:#3299cc;fill-opacity:1;stroke:#3299cc;stroke-width:4;stroke-opacity:1" />
  <g
     id="g3106">
    <path
       style="fill:#2a86c0"
       inkscape:connector-curvature="0"
       id="path3108"
       d="m 197.061,229.784 c 0,-0.807 -2.542,-1.461 -5.684,-1.461 l -163.631,0 c -3.139,0 -5.685,0.654 -5.685,1.461 l 0,42.077 c 0,0.807 2.546,1.462 5.685,1.462 l 163.631,0 c 3.142,0 5.684,-0.655 5.684,-1.462 l 0,-42.077" />
    <text
       id="text3110"
       transform="translate(118.661,252.034)">
      <tspan
         style="font-size:24px;fill:#ffffff;font-family:GillSans"
         id="tspan3112"
         font-size="24"
         y="6.1680002"
         x="-43.832001">mongod</tspan>
    </text>
  </g>
  <g
     id="g3114">
    <path
       style="fill-opacity:0;stroke:#3299cc;stroke-width:4"
       inkscape:connector-curvature="0"
       id="path3116"
       d="m 300.665,253.41 c -0.108,42.235 54.42,48.476 67.669,16.032" />
    <path
       style="fill:#3299cc;fill-opacity:1;stroke:#3299cc;stroke-width:4;stroke-opacity:1"
       inkscape:connector-curvature="0"
       id="path3118"
       d="m 373.059,270.289 -2.466,-13.446 -6.983,11.752 z" />
  </g>
  <text
     id="text3120"
     x="338.57599"
     y="302.5">
    <tspan
       style="font-size:24px;fill:#3299cc;font-family:GillSans"
       id="tspan3122"
       font-size="24"
       y="310"
       x="310">Apply</tspan>
  </text>
  <path
     style="fill-opacity:0;stroke:#5a5955;stroke-width:4"
     inkscape:connector-curvature="0"
     id="path3124"
     d="m 198.439,42.22 250,0" />
  <path
     style="fill-opacity:0;stroke:#3299cc;stroke-width:4"
     inkscape:connector-curvature="0"
     id="path3126"
     d="m 199.316,253.41 250,0" />
  <defs
     id="defs3128" />
</svg>

<?xml version="1.0" encoding="UTF-8"?>
<!DOCTYPE svg PUBLIC "-//W3C//DTD SVG 1.1//EN" "http://www.w3.org/Graphics/SVG/1.1/DTD/svg11.dtd">
<svg version="1.1" xmlns="http://www.w3.org/2000/svg" xmlns:xlink="http://www.w3.org/1999/xlink" x="0px" y="0px" width="460" height="320" viewBox="0, 0, 460, 320">
  <g id="Layer 1">
    <path d="M22.061,61.915 C22.061,63.018 23.371,63.911 24.988,63.911 L194.135,63.911 C195.752,63.911 197.061,63.018 197.061,61.915 L197.061,20.908 C197.061,19.805 195.752,18.911 194.135,18.911 L24.988,18.911 C23.371,18.911 22.061,19.805 22.061,20.908 L22.061,61.915" fill="#5A5955"/>
    <text transform="matrix(1, 0, 0, 1, 109.561, 41.411)">
      <tspan x="-35.29" y="6.68" font-family="GillSans" font-size="24" fill="#FFFFFE">Dri</tspan>
      <tspan x="-2.525" y="6.68" font-family="GillSans" font-size="24" fill="#FFFFFE">v</tspan>
      <tspan x="7.507" y="6.68" font-family="GillSans" font-size="24" fill="#FFFFFE">e</tspan>
      <tspan x="19.003" y="6.68" font-family="GillSans" font-size="24" fill="#FFFFFE">r</tspan>
    </text>
    <text transform="matrix(1, 0, 0, 1, 112.86, 238.41)">
      <tspan x="-39.689" y="7.5" font-family="GillSans" font-size="24" fill="#FFFFFE">Primary</tspan>
    </text>
    <g>
      <path d="M197.061,229.784 C197.061,228.977 194.519,228.323 191.377,228.323 L27.746,228.323 C24.607,228.323 22.061,228.977 22.061,229.784 L22.061,271.861 C22.061,272.668 24.607,273.323 27.746,273.323 L191.377,273.323 C194.519,273.323 197.061,272.668 197.061,271.861 L197.061,229.784" fill="#2A86C0"/>
      <text transform="matrix(1, 0, 0, 1, 118.661, 252.034)">
        <tspan x="-43.832" y="6.168" font-family="GillSans" font-size="24" fill="#FFFFFF">mongod</tspan>
      </text>
    </g>
    <g>
      <path d="M222.665,253.41 C222.557,295.645 277.085,301.886 290.334,269.442" fill-opacity="0" stroke="#3299CC" stroke-width="4"/>
      <path d="M295.059,270.289 L292.593,256.843 L285.61,268.595 z" fill="#3299CC" fill-opacity="1" stroke="#3299CC" stroke-width="4" stroke-opacity="1"/>
    </g>
    <text transform="matrix(1, 0, 0, 1, 257.541, 298.363)">
      <tspan x="-28.576" y="7.5" font-family="GillSans" font-size="24" fill="#3299CC">Apply</tspan>
    </text>
    <path d="M198.439,42.22 L448.439,42.22" fill-opacity="0" stroke="#5A5955" stroke-width="4"/>
    <path d="M199.316,253.41 L449.316,253.41" fill-opacity="0" stroke="#3299CC" stroke-width="4"/>
    <text transform="matrix(-0, 1, -1, -0, 231.853, 148.586)">
      <tspan x="-31.619" y="5.166" font-family="GillSans" font-size="24" fill="#3299CC">Write</tspan>
    </text>
    <g>
      <path d="M220.687,49.128 L221.864,232.645" fill-opacity="0" stroke="#3299CC" stroke-width="4"/>
      <path d="M217.064,232.675 L221.946,245.444 L226.663,232.614 z" fill="#3299CC" fill-opacity="1" stroke="#3299CC" stroke-width="4" stroke-opacity="1"/>
    </g>
    <text transform="matrix(-0, 1, -1, -0, 199.528, 150.516)">
      <tspan x="-61.662" y="-6.5" font-family="Inconsolata" font-size="18" fill="#3299CC">writeConcern:</tspan>
      <tspan x="-61.662" y="13.5" font-family="Inconsolata" font-size="18" fill="#3299CC">  { w: 0 }</tspan>
    </text>
  </g>
  <defs/>
</svg>
